X: 33835
T: Rebound's, The
R: jig
M: 6/8
K: Gmajor
|:EGB eBG|EGB eBe-|e2d BAG|~E3 ~A3|
EGB eBG|EGB eBg-|g2b age|1 dBA GED:|2 dBA ~G3||
|:ged Bde|ged geb-|b2a ged|BAG ~A3|
ged Bde|ged geb-|b2g age|dBA ~G3:|

